www/assets/icons/assured_workload.svg

<svg xmlns="http://www.w3.org/2000/svg" width="24" height="24" viewBox="0 0 24 24" fill='currentColor'><path d="M6 9.5H4v7h2zm6 0h-2v7h2zm9-4-10-5-10 5v2h20zm-20 13v2h12.4c-.21-.64-.32-1.31-.36-2zm17-6.74V9.5h-2v3.26zm1 1.74-4 2v2.55c0 2.52 1.71 4.88 4 5.45 2.29-.57 4-2.93 4-5.45V15.5zm-.72 7-2.03-2.03 1.06-1.06.97.97L20.69 16l1.06 1.06z"/></svg>

<svg width="24" height="24" viewBox="0 0 24 24" xmlns="http://www.w3.org/2000/svg" fill='currentColor'><path d="M6 9.5H4V16.5H6V9.5Z"/><path d="M12 9.5H10V16.5H12V9.5Z"/><path d="M21 5.5L11 0.5L1 5.5V7.5H21V5.5Z"/><path d="M1 18.5V20.5H13.4C13.19 19.86 13.08 19.19 13.04 18.5H1Z"/><path d="M18 11.76V9.5H16V12.76L18 11.76Z"/><path d="M19 13.5L15 15.5V18.05C15 20.57 16.71 22.93 19 23.5C21.29 22.93 23 20.57 23 18.05V15.5L19 13.5ZM18.28 20.5L16.25 18.47L17.31 17.41L18.28 18.38L20.69 16L21.75 17.06L18.28 20.5Z"/></svg>
